!!!OTL: ES KAM EIN FREMDER SCHLEIFER
!!!ARE: Europa, Mitteleuropa, Deutschland; France, Elsass
!!!SCT: E1640
!!!YEM: Copyright 1995, estate of Helmut Schaffrath.
**kern
*ICvox
*Ivox
*M2/4
*k[b-]
*F:
{8c
=1
4f
4f
=2
4g
4g
=3
4a
8a
8g
=4
4f
8r}
{8f
=5
4g
4g
=6
8a
8cc
4cc
=7
8cc
8b-
4g
=8
4f
4r}
=9
{8f
8g
8a
8b-
=10
8.cc
16cc
4cc
=11
4dd
8ff
8dd
=12
2cc}
=13
{8cc
8b-
4b-
=14
8a
8cc
4cc
=15
8cc
8b-
4g
=16
4f
8r}
==
!!!AGN: Staende -, Handwerker - Lied, Scherenschleifer
!!!ONB: ESAC (Essen Associative Code) Database: ERK3
!!!AMT: simple duple
!!!AIN: vox
!!!EED: Helmut Schaffrath
!!!EEV: 1.0
*-
